X: 1938
T: Arrane Oie Vie
R: waltz
M: 3/4
K: Aminor
E AB|c3A Bc|d3d ee|e3c de|
e3e ge|d3e cA|G3A cB|A3E EA|A3||

